X: 27640
T: Moons Of Jupiter, The
R: jig
M: 6/8
K: Eminor
|:E2A G2B|AGE GFD|E2A G2B|BAG FED|
E2A ~G3|DEF GAB|~A3 DGB|1 A3 AGF:|2 A3 GAB||
c2E EDE|E2c AGE|DEG AGA|BGF GAB|
c2E EDE|EDE FGA|~B3 AGF|G3 EGB|
c2E EDE|E2c AGE|DEG AGA|BGF Gz B|
cBc d^cd|efg a2g|f2d A^ce|d3 =cBA||

